package/converter/svg/duotone/square-caret-right.svg

<svg xmlns="http://www.w3.org/2000/svg" viewBox="0 0 448 512"><!-- Font Awesome Pro 6.0.0-alpha2 by @fontawesome - https://fontawesome.com License - https://fontawesome.com/license (Commercial License) --><defs><style>.fa-secondary{opacity:.4}</style></defs><path d="M384 32H64C28.654 32 0 60.652 0 96V416C0 451.344 28.654 480 64 480H384C419.346 480 448 451.344 448 416V96C448 60.652 419.346 32 384 32ZM312.344 273.594L200.344 377.594C195.812 381.781 189.938 384 184 384C180.75 384 177.5 383.344 174.406 382C165.656 378.188 160 369.531 160 360V152C160 142.469 165.656 133.812 174.406 130C183.156 126.25 193.344 127.938 200.344 134.406L312.344 238.406C317.219 242.969 320 249.312 320 256S317.219 269.031 312.344 273.594Z" class="fa-secondary"/><path d="M312.344 273.594L200.344 377.594C195.812 381.781 189.938 384 184 384C180.75 384 177.5 383.344 174.406 382C165.656 378.188 160 369.531 160 360V152C160 142.469 165.656 133.812 174.406 130C183.156 126.25 193.344 127.938 200.344 134.406L312.344 238.406C317.219 242.969 320 249.312 320 256S317.219 269.031 312.344 273.594Z" class="fa-primary"/></svg>

<svg xmlns="http://www.w3.org/2000/svg" viewBox="0 0 448 512"><!--! Font Awesome Pro 6.6.0 by @fontawesome - https://fontawesome.com License - https://fontawesome.com/license (Commercial License) Copyright 2024 Fonticons, Inc. --><defs><style>.fa-secondary{opacity:.4}</style></defs><path class="fa-secondary" d="M0 96L0 416c0 35.3 28.7 64 64 64l320 0c35.3 0 64-28.7 64-64l0-320c0-35.3-28.7-64-64-64L64 32C28.7 32 0 60.7 0 96zm160 56c0-9.5 5.7-18.2 14.4-22c3.1-1.3 6.3-2 9.6-2c5.9 0 11.8 2.2 16.3 6.4l112 104c4.9 4.5 7.7 10.9 7.7 17.6s-2.8 13-7.7 17.6l-112 104c-4.5 4.2-10.4 6.4-16.3 6.4c-3.2 0-6.5-.7-9.6-2c-8.7-3.8-14.4-12.5-14.4-22l0-208z"/><path class="fa-primary" d="M312.3 273.6c4.9-4.5 7.7-10.9 7.7-17.6s-2.8-13-7.7-17.6l-112-104c-7-6.5-17.2-8.2-25.9-4.4s-14.4 12.5-14.4 22l0 208c0 9.5 5.7 18.2 14.4 22s18.9 2.1 25.9-4.4l112-104z"/></svg>
